fs/box_toolbox_24_filled.svg

<svg viewBox="0 0 24 24" fill="none" xmlns="http://www.w3.org/2000/svg" height="1em" width="1em">
  <path d="M13.4089 2.51301C12.5053 2.14671 11.4947 2.14671 10.5911 2.51301L8.40058 3.40106L17.9928 7.13136L21.3671 5.82763C21.2312 5.7149 21.0769 5.62165 20.9075 5.55298L13.4089 2.51301ZM22 7.19118L12.7498 10.7651V14.1155C12.8315 14.0898 12.915 14.0682 13 14.051V14.001C13 12.4822 14.2312 11.251 15.75 11.251H19.25C20.7649 11.251 21.9936 12.4758 22 13.9892V7.19118ZM11.2498 10.7651V15.4104C11.0898 15.74 11 16.11 11 16.501V21.501C11 21.5439 11.0011 21.5867 11.0032 21.6291C10.8639 21.5907 10.7263 21.5441 10.5911 21.4892L3.09252 18.4493C2.43211 18.1815 2 17.5401 2 16.8275V7.19134L11.2498 10.7651ZM2.63273 5.82774L11.9998 9.44684L15.9168 7.93346L6.37434 4.22251L3.09252 5.55298C2.92308 5.62167 2.76867 5.71496 2.63273 5.82774ZM14 15.001H13.5C12.6716 15.001 12 15.6725 12 16.501V18.001H14.5V17.751C14.5 17.3368 14.8358 17.001 15.25 17.001C15.6642 17.001 16 17.3368 16 17.751V18.001H19V17.751C19 17.3368 19.3358 17.001 19.75 17.001C20.1642 17.001 20.5 17.3368 20.5 17.751V18.001H23V16.501C23 15.6725 22.3284 15.001 21.5 15.001H21V14.001C21 13.0345 20.2165 12.251 19.25 12.251H15.75C14.7835 12.251 14 13.0345 14 14.001V15.001ZM15.5 14.001C15.5 13.8629 15.6119 13.751 15.75 13.751H19.25C19.3881 13.751 19.5 13.8629 19.5 14.001V15.001H15.5V14.001ZM12 21.501V19.501H14.5V20.251C14.5 20.6652 14.8358 21.001 15.25 21.001C15.6642 21.001 16 20.6652 16 20.251V19.501H19V20.251C19 20.6652 19.3358 21.001 19.75 21.001C20.1642 21.001 20.5 20.6652 20.5 20.251V19.501H23V21.501C23 22.3294 22.3284 23.001 21.5 23.001H13.5C12.6716 23.001 12 22.3294 12 21.501Z" fill="#212121"/>
</svg>

<svg viewBox="0 0 24 24" fill="none" xmlns="http://www.w3.org/2000/svg" height="1em" width="1em">
  <path d="M13.409 2.513a3.75 3.75 0 0 0-2.818 0l-2.19.888 9.592 3.73 3.374-1.303a1.747 1.747 0 0 0-.46-.275l-7.498-3.04ZM22 7.191l-9.25 3.574v3.35a2.46 2.46 0 0 1 .25-.064v-.05a2.75 2.75 0 0 1 2.75-2.75h3.5A2.75 2.75 0 0 1 22 13.989V7.191Zm-10.75 3.574v4.645c-.16.33-.25.7-.25 1.091v5c0 .043.001.086.003.128a3.73 3.73 0 0 1-.412-.14l-7.498-3.04A1.75 1.75 0 0 1 2 16.827V7.192l9.25 3.574ZM2.633 5.828 12 9.447l3.917-1.514-9.543-3.71-3.281 1.33c-.17.069-.324.162-.46.275ZM14 15h-.5a1.5 1.5 0 0 0-1.5 1.5V18h2.5v-.25a.75.75 0 0 1 1.5 0V18h3v-.25a.75.75 0 0 1 1.5 0V18H23v-1.5a1.5 1.5 0 0 0-1.5-1.5H21v-1a1.75 1.75 0 0 0-1.75-1.75h-3.5A1.75 1.75 0 0 0 14 14v1Zm1.5-1a.25.25 0 0 1 .25-.25h3.5a.25.25 0 0 1 .25.25v1h-4v-1ZM12 21.5v-2h2.5v.75a.75.75 0 0 0 1.5 0v-.75h3v.75a.75.75 0 0 0 1.5 0v-.75H23v2a1.5 1.5 0 0 1-1.5 1.5h-8a1.5 1.5 0 0 1-1.5-1.5Z" fill="#212121"/>
</svg>
